src/images/bg/bg-up-desktop.svg

<svg xmlns="http://www.w3.org/2000/svg" width="1280" height="1036" fill="none"><path d="M51.5 985c0 23-31.673 51.44-51.5 50.5V0h1280v337.5c.5 201.5 0 590 0 626.5 0 22.875-34.91 13.242-63.23-23.57-28.33-36.812 24.07-154.329 28.32-188.31 4.25-33.98-8.5-104.773-140.2-191.141-131.711-86.367-324.314-9.911-426.281 41.06-101.966 50.971-188.64-19.822-327.427-62.298C212.394 497.265 161.411 565.227 143 602.039S124.874 737.962 85.22 752.12c-39.653 14.159-55.231 52.387-45.318 107.606C49.816 914.944 51.5 955.267 51.5 985z" fill="#FEF3E4"/></svg>

<svg width="1280" height="1036" viewBox="0 0 1280 1036" fill="none" xmlns="http://www.w3.org/2000/svg">
<path d="M51.5 985C51.5 1008 19.8268 1036.44 0 1035.5V0H1280V337.5C1280.5 539 1280 927.5 1280 964C1280 986.875 1245.09 977.242 1216.77 940.43C1188.44 903.618 1240.84 786.101 1245.09 752.12C1249.34 718.14 1236.59 647.347 1104.89 560.979C973.179 474.612 780.576 551.068 678.609 602.039C576.643 653.01 489.969 582.217 351.182 539.741C212.394 497.265 161.411 565.227 143 602.039C124.589 638.851 124.874 737.962 85.2207 752.12C45.5671 766.279 29.9888 804.507 39.9023 859.726C49.8157 914.944 51.5 955.267 51.5 985Z" fill="#FEF3E4"/>
</svg>
